X:1
T:Title
T:Promenons-nous dans les bois   (Harmonica junior) 
T:Comptine 
T:Tablature pour harmonica chromatique de PéPé le YéYé
T:Tablature pour harmonica chromatique de PéPé le YéYé
C:Composer
Z:Tablature pour harmonica chromatique de PéPé le YéYé
L:1/8
M:4/4
K:C
V:1 treble nm="Harmonica" snm="Harm."
V:1
"^1" cc c2 dd G2 |"^2" cccc dd G2 |"^3" cc c2 c2 d2 |"^4" cc d2 g2 c2 |"^5" cc c2 c2 d2 | %5
w: Prom'- nons nous dans les bois,|pen- dant que le loup n'y'est pas,|Si le loup y'é- tait|Il nous man- ge- rait,|Mais com' il n'y'est pas,|
"^6=4" cc d2 g2 c2 |"^7" c2 c2 c2 z2 |"^8" d2 d2 d2 z2 |"^9" e2 e2 e2 z2 | z8 |"^10" C2 C2 C2 C2 | %11
w: il nous mang'- ra pas|Loup y'es- tu?|En- tends- tu?|Que fais- tu?||JE METS MA CHE-|
 C4 z4 | AA A2 BB E2 | AAAA BB E2 | AA A2 A2 B2 | AA B2 e2 A2 | AA A2 A2 B2 | AA B2 e2 A2 | %18
w: MISE!|Prom'- nons nous dans les bois,|pen- dant que le loup n'y'est pas,|Si le loup y'é- tait|Il nous man- ge- rait,|Mais com' il n'y'est pas,|il nous mang'- ra pas|
 GG G2 AA D2 | GGGG AA D2 | GG G2 G2 A2 | GG A2 d2 G2 | GG G2 G2 A2 | GG A2 d2 G2 | FF F2 GG C2 | %25
w: Prom'- nons nous dans les bois,|pen- dant que le loup n'y'est pas,|Si le loup y'é- tait|Il nous man- ge- rait,|Mais com' il n'y'est pas,|il nous mang'- ra pas|Prom'- nons nous dans les bois,|
 FFFF GG C2 | FF F2 F2 G2 | FF G2 c2 F2 | FF F2 F2 G2 | FF G2 c2 F2 |] %30
w: pen- dant que le loup n'y'est pas,|Si le loup y'é- tait|Il nous man- ge- rait,|Mais com' il n'y'est pas,|il nous mang'- ra pas|

